groups/aromatics/perylene.svg

<svg height="256" viewBox="0 0 256 256" width="256" xmlns="http://www.w3.org/2000/svg"><path d="m0 0h256v256h-256z" fill="#fff"/><g fill="none" stroke-width="2"><path d="m164.7 224.5-36.7-21.1" stroke="#000"/><path d="m128 203.4-36.6 21.2" stroke="#000"/><path d="m121.6 199.7-30.3 17.6" stroke="#000"/><path d="m91.4 224.6-36.7-21.1" stroke="#000"/><path d="m54.7 203.5-.1-42.3" stroke="#000"/><path d="m61 199.8-.1-35" stroke="#000"/><path d="m54.6 161.2-36.7-21.1" stroke="#000"/><path d="m17.9 140.1-.1-42.3" stroke="#000"/><path d="m24.2 136.4-.1-35" stroke="#000"/><path d="m17.8 97.8 36.6-21.3" stroke="#000"/><path d="m54.4 76.5 36.7 21.1" stroke="#000"/><path d="m54.4 83.8 30.4 17.5" stroke="#000"/><path d="m91.1 97.6.1 42.3" stroke="#000"/><path d="m91.2 139.9 36.7 21.1" stroke="#000"/><path d="m91.2 147.3 30.3 17.4" stroke="#000"/><path d="m127.9 161 36.6-21.2" stroke="#000"/><path d="m164.5 139.8 36.7 21.1" stroke="#000"/><path d="m170.8 136.1 30.4 17.4" stroke="#000"/><path d="m201.2 160.9 36.6-21.3" stroke="#000"/><path d="m237.8 139.6-.1-42.3" stroke="#000"/><path d="m231.5 136-.1-35" stroke="#000"/><path d="m237.7 97.3-36.7-21.1" stroke="#000"/><path d="m201 76.2v-42.3" stroke="#000"/><path d="m194.7 72.6-.1-35" stroke="#000"/><path d="m201 33.9-36.7-21.1" stroke="#000"/><path d="m164.3 12.8-36.7 21.2" stroke="#000"/><path d="m164.3 20.1-30.3 17.6" stroke="#000"/><path d="m127.6 34 .1 42.4" stroke="#000"/><path d="m127.7 76.4 36.7 21.1" stroke="#000"/><path d="m134.1 72.7 30.3 17.4" stroke="#000"/><path d="m127.9 161 .1 42.4" stroke="#000"/><path d="m164.4 97.5.1 42.3" stroke="#000"/><path d="m164.4 97.5 36.6-21.3" stroke="#000"/><path d="m127.7 76.4-36.6 21.2" stroke="#000"/><path d="m91.2 139.9-36.6 21.3" stroke="#000"/><path d="m93.2 223.5-1.8 1.1-1.9-1.1" stroke="#000" stroke-miterlimit="10"/><path d="m56.5 204.6-1.8-1.1v-2.1" stroke="#000" stroke-miterlimit="10"/><path d="m19.7 141.1-1.8-1v-2.1" stroke="#000" stroke-miterlimit="10"/><path d="m17.8 99.9v-2.1l1.8-1.1" stroke="#000" stroke-miterlimit="10"/><path d="m52.6 77.6 1.8-1.1 1.8 1.1" stroke="#000" stroke-miterlimit="10"/><path d="m199.4 159.8 1.8 1.1 1.8-1.1" stroke="#000" stroke-miterlimit="10"/><path d="m236 140.7 1.8-1.1v-2.1" stroke="#000" stroke-miterlimit="10"/><path d="m237.7 99.4v-2.1l-1.8-1" stroke="#000" stroke-miterlimit="10"/><path d="m201 36v-2.1l-1.9-1.1" stroke="#000" stroke-miterlimit="10"/><path d="m166.1 13.9-1.8-1.1-1.9 1.1" stroke="#000" stroke-miterlimit="10"/><path d="m129.5 33-1.9 1v2.2" stroke="#000" stroke-miterlimit="10"/><path d="m175.222 206.101c-1.376-.791-2.431 1.044-1.055 1.835s.322 2.626-1.055 1.835c-1.376-.791-2.431 1.044-1.054 1.835 1.376.791.321 2.626-1.055 1.835s-2.431 1.044-1.055 1.835.321 2.626-1.055 1.835-2.431 1.044-1.055 1.835.322 2.626-1.055 1.835c-1.376-.791-2.431 1.044-1.054 1.835 1.376.791.321 2.626-1.055 1.835s-2.431 1.044-1.055 1.835.321 2.626-1.055 1.835c-1.376-.792-2.431 1.043-1.055 1.835 1.376.791.322 2.626-1.054 1.834-1.377-.791-2.431 1.044-1.055 1.835s.321 2.626-1.055 1.835-2.431 1.044-1.055 1.835.321 2.626-1.055 1.835-2.431 1.044-1.055 1.835c1.377.791.322 2.626-1.054 1.835" stroke="#7f7f7f"/></g></svg>

<?xml version='1.0' encoding='iso-8859-1'?>
<svg version='1.1' baseProfile='full'
              xmlns='http://www.w3.org/2000/svg'
                      xmlns:rdkit='http://www.rdkit.org/xml'
                      xmlns:xlink='http://www.w3.org/1999/xlink'
                  xml:space='preserve'
width='256px' height='256px' viewBox='0 0 256 256'>
<!-- END OF HEADER -->
<rect style='opacity:1.0;fill:#FFFFFF;stroke:none' width='256.0' height='256.0' x='0.0' y='0.0'> </rect>
<path class='bond-0 atom-0 atom-1' d='M 164.7,224.5 L 128.0,203.4' style='fill:none;fill-rule:evenodd;stroke:#000000;stroke-width:2.0px;stroke-linecap:butt;stroke-linejoin:miter;stroke-opacity:1' />
<path class='bond-1 atom-1 atom-2' d='M 128.0,203.4 L 91.4,224.6' style='fill:none;fill-rule:evenodd;stroke:#000000;stroke-width:2.0px;stroke-linecap:butt;stroke-linejoin:miter;stroke-opacity:1' />
<path class='bond-1 atom-1 atom-2' d='M 121.6,199.7 L 91.3,217.3' style='fill:none;fill-rule:evenodd;stroke:#000000;stroke-width:2.0px;stroke-linecap:butt;stroke-linejoin:miter;stroke-opacity:1' />
<path class='bond-2 atom-2 atom-3' d='M 91.4,224.6 L 54.7,203.5' style='fill:none;fill-rule:evenodd;stroke:#000000;stroke-width:2.0px;stroke-linecap:butt;stroke-linejoin:miter;stroke-opacity:1' />
<path class='bond-3 atom-3 atom-4' d='M 54.7,203.5 L 54.6,161.2' style='fill:none;fill-rule:evenodd;stroke:#000000;stroke-width:2.0px;stroke-linecap:butt;stroke-linejoin:miter;stroke-opacity:1' />
<path class='bond-3 atom-3 atom-4' d='M 61.0,199.8 L 60.9,164.8' style='fill:none;fill-rule:evenodd;stroke:#000000;stroke-width:2.0px;stroke-linecap:butt;stroke-linejoin:miter;stroke-opacity:1' />
<path class='bond-4 atom-4 atom-5' d='M 54.6,161.2 L 17.9,140.1' style='fill:none;fill-rule:evenodd;stroke:#000000;stroke-width:2.0px;stroke-linecap:butt;stroke-linejoin:miter;stroke-opacity:1' />
<path class='bond-5 atom-5 atom-6' d='M 17.9,140.1 L 17.8,97.8' style='fill:none;fill-rule:evenodd;stroke:#000000;stroke-width:2.0px;stroke-linecap:butt;stroke-linejoin:miter;stroke-opacity:1' />
<path class='bond-5 atom-5 atom-6' d='M 24.2,136.4 L 24.1,101.4' style='fill:none;fill-rule:evenodd;stroke:#000000;stroke-width:2.0px;stroke-linecap:butt;stroke-linejoin:miter;stroke-opacity:1' />
<path class='bond-6 atom-6 atom-7' d='M 17.8,97.8 L 54.4,76.5' style='fill:none;fill-rule:evenodd;stroke:#000000;stroke-width:2.0px;stroke-linecap:butt;stroke-linejoin:miter;stroke-opacity:1' />
<path class='bond-7 atom-7 atom-8' d='M 54.4,76.5 L 91.1,97.6' style='fill:none;fill-rule:evenodd;stroke:#000000;stroke-width:2.0px;stroke-linecap:butt;stroke-linejoin:miter;stroke-opacity:1' />
<path class='bond-7 atom-7 atom-8' d='M 54.4,83.8 L 84.8,101.3' style='fill:none;fill-rule:evenodd;stroke:#000000;stroke-width:2.0px;stroke-linecap:butt;stroke-linejoin:miter;stroke-opacity:1' />
<path class='bond-8 atom-8 atom-9' d='M 91.1,97.6 L 91.2,139.9' style='fill:none;fill-rule:evenodd;stroke:#000000;stroke-width:2.0px;stroke-linecap:butt;stroke-linejoin:miter;stroke-opacity:1' />
<path class='bond-9 atom-9 atom-10' d='M 91.2,139.9 L 127.9,161.0' style='fill:none;fill-rule:evenodd;stroke:#000000;stroke-width:2.0px;stroke-linecap:butt;stroke-linejoin:miter;stroke-opacity:1' />
<path class='bond-9 atom-9 atom-10' d='M 91.2,147.3 L 121.5,164.7' style='fill:none;fill-rule:evenodd;stroke:#000000;stroke-width:2.0px;stroke-linecap:butt;stroke-linejoin:miter;stroke-opacity:1' />
<path class='bond-10 atom-10 atom-11' d='M 127.9,161.0 L 164.5,139.8' style='fill:none;fill-rule:evenodd;stroke:#000000;stroke-width:2.0px;stroke-linecap:butt;stroke-linejoin:miter;stroke-opacity:1' />
<path class='bond-11 atom-11 atom-12' d='M 164.5,139.8 L 201.2,160.9' style='fill:none;fill-rule:evenodd;stroke:#000000;stroke-width:2.0px;stroke-linecap:butt;stroke-linejoin:miter;stroke-opacity:1' />
<path class='bond-11 atom-11 atom-12' d='M 170.8,136.1 L 201.2,153.5' style='fill:none;fill-rule:evenodd;stroke:#000000;stroke-width:2.0px;stroke-linecap:butt;stroke-linejoin:miter;stroke-opacity:1' />
<path class='bond-12 atom-12 atom-13' d='M 201.2,160.9 L 237.8,139.6' style='fill:none;fill-rule:evenodd;stroke:#000000;stroke-width:2.0px;stroke-linecap:butt;stroke-linejoin:miter;stroke-opacity:1' />
<path class='bond-13 atom-13 atom-14' d='M 237.8,139.6 L 237.7,97.3' style='fill:none;fill-rule:evenodd;stroke:#000000;stroke-width:2.0px;stroke-linecap:butt;stroke-linejoin:miter;stroke-opacity:1' />
<path class='bond-13 atom-13 atom-14' d='M 231.5,136.0 L 231.4,101.0' style='fill:none;fill-rule:evenodd;stroke:#000000;stroke-width:2.0px;stroke-linecap:butt;stroke-linejoin:miter;stroke-opacity:1' />
<path class='bond-14 atom-14 atom-15' d='M 237.7,97.3 L 201.0,76.2' style='fill:none;fill-rule:evenodd;stroke:#000000;stroke-width:2.0px;stroke-linecap:butt;stroke-linejoin:miter;stroke-opacity:1' />
<path class='bond-15 atom-15 atom-16' d='M 201.0,76.2 L 201.0,33.9' style='fill:none;fill-rule:evenodd;stroke:#000000;stroke-width:2.0px;stroke-linecap:butt;stroke-linejoin:miter;stroke-opacity:1' />
<path class='bond-15 atom-15 atom-16' d='M 194.7,72.6 L 194.6,37.6' style='fill:none;fill-rule:evenodd;stroke:#000000;stroke-width:2.0px;stroke-linecap:butt;stroke-linejoin:miter;stroke-opacity:1' />
<path class='bond-16 atom-16 atom-17' d='M 201.0,33.9 L 164.3,12.8' style='fill:none;fill-rule:evenodd;stroke:#000000;stroke-width:2.0px;stroke-linecap:butt;stroke-linejoin:miter;stroke-opacity:1' />
<path class='bond-17 atom-17 atom-18' d='M 164.3,12.8 L 127.6,34.0' style='fill:none;fill-rule:evenodd;stroke:#000000;stroke-width:2.0px;stroke-linecap:butt;stroke-linejoin:miter;stroke-opacity:1' />
<path class='bond-17 atom-17 atom-18' d='M 164.3,20.1 L 134.0,37.7' style='fill:none;fill-rule:evenodd;stroke:#000000;stroke-width:2.0px;stroke-linecap:butt;stroke-linejoin:miter;stroke-opacity:1' />
<path class='bond-18 atom-18 atom-19' d='M 127.6,34.0 L 127.7,76.4' style='fill:none;fill-rule:evenodd;stroke:#000000;stroke-width:2.0px;stroke-linecap:butt;stroke-linejoin:miter;stroke-opacity:1' />
<path class='bond-19 atom-19 atom-20' d='M 127.7,76.4 L 164.4,97.5' style='fill:none;fill-rule:evenodd;stroke:#000000;stroke-width:2.0px;stroke-linecap:butt;stroke-linejoin:miter;stroke-opacity:1' />
<path class='bond-19 atom-19 atom-20' d='M 134.1,72.7 L 164.4,90.1' style='fill:none;fill-rule:evenodd;stroke:#000000;stroke-width:2.0px;stroke-linecap:butt;stroke-linejoin:miter;stroke-opacity:1' />
<path class='bond-20 atom-10 atom-1' d='M 127.9,161.0 L 128.0,203.4' style='fill:none;fill-rule:evenodd;stroke:#000000;stroke-width:2.0px;stroke-linecap:butt;stroke-linejoin:miter;stroke-opacity:1' />
<path class='bond-21 atom-20 atom-11' d='M 164.4,97.5 L 164.5,139.8' style='fill:none;fill-rule:evenodd;stroke:#000000;stroke-width:2.0px;stroke-linecap:butt;stroke-linejoin:miter;stroke-opacity:1' />
<path class='bond-22 atom-20 atom-15' d='M 164.4,97.5 L 201.0,76.2' style='fill:none;fill-rule:evenodd;stroke:#000000;stroke-width:2.0px;stroke-linecap:butt;stroke-linejoin:miter;stroke-opacity:1' />
<path class='bond-23 atom-19 atom-8' d='M 127.7,76.4 L 91.1,97.6' style='fill:none;fill-rule:evenodd;stroke:#000000;stroke-width:2.0px;stroke-linecap:butt;stroke-linejoin:miter;stroke-opacity:1' />
<path class='bond-24 atom-9 atom-4' d='M 91.2,139.9 L 54.6,161.2' style='fill:none;fill-rule:evenodd;stroke:#000000;stroke-width:2.0px;stroke-linecap:butt;stroke-linejoin:miter;stroke-opacity:1' />
<path d='M 93.2,223.5 L 91.4,224.6 L 89.5,223.5' style='fill:none;stroke:#000000;stroke-width:2.0px;stroke-linecap:butt;stroke-linejoin:miter;stroke-miterlimit:10;stroke-opacity:1;' />
<path d='M 56.5,204.6 L 54.7,203.5 L 54.7,201.4' style='fill:none;stroke:#000000;stroke-width:2.0px;stroke-linecap:butt;stroke-linejoin:miter;stroke-miterlimit:10;stroke-opacity:1;' />
<path d='M 19.7,141.1 L 17.9,140.1 L 17.9,138.0' style='fill:none;stroke:#000000;stroke-width:2.0px;stroke-linecap:butt;stroke-linejoin:miter;stroke-miterlimit:10;stroke-opacity:1;' />
<path d='M 17.8,99.9 L 17.8,97.8 L 19.6,96.7' style='fill:none;stroke:#000000;stroke-width:2.0px;stroke-linecap:butt;stroke-linejoin:miter;stroke-miterlimit:10;stroke-opacity:1;' />
<path d='M 52.6,77.6 L 54.4,76.5 L 56.2,77.6' style='fill:none;stroke:#000000;stroke-width:2.0px;stroke-linecap:butt;stroke-linejoin:miter;stroke-miterlimit:10;stroke-opacity:1;' />
<path d='M 199.4,159.8 L 201.2,160.9 L 203.0,159.8' style='fill:none;stroke:#000000;stroke-width:2.0px;stroke-linecap:butt;stroke-linejoin:miter;stroke-miterlimit:10;stroke-opacity:1;' />
<path d='M 236.0,140.7 L 237.8,139.6 L 237.8,137.5' style='fill:none;stroke:#000000;stroke-width:2.0px;stroke-linecap:butt;stroke-linejoin:miter;stroke-miterlimit:10;stroke-opacity:1;' />
<path d='M 237.7,99.4 L 237.7,97.3 L 235.9,96.3' style='fill:none;stroke:#000000;stroke-width:2.0px;stroke-linecap:butt;stroke-linejoin:miter;stroke-miterlimit:10;stroke-opacity:1;' />
<path d='M 201.0,36.0 L 201.0,33.9 L 199.1,32.8' style='fill:none;stroke:#000000;stroke-width:2.0px;stroke-linecap:butt;stroke-linejoin:miter;stroke-miterlimit:10;stroke-opacity:1;' />
<path d='M 166.1,13.9 L 164.3,12.8 L 162.4,13.9' style='fill:none;stroke:#000000;stroke-width:2.0px;stroke-linecap:butt;stroke-linejoin:miter;stroke-miterlimit:10;stroke-opacity:1;' />
<path d='M 129.5,33.0 L 127.6,34.0 L 127.6,36.2' style='fill:none;stroke:#000000;stroke-width:2.0px;stroke-linecap:butt;stroke-linejoin:miter;stroke-miterlimit:10;stroke-opacity:1;' />
<path class='atom-1' d='M175.222,206.101 C173.846,205.31 172.791,207.145 174.167,207.936 C175.543,208.727 174.489,210.562 173.112,209.771 C171.736,208.98 170.681,210.815 172.058,211.606 C173.434,212.397 172.379,214.232 171.003,213.441 C169.627,212.65 168.572,214.485 169.948,215.276 C171.324,216.067 170.269,217.902 168.893,217.111 C167.517,216.32 166.462,218.155 167.838,218.946 C169.214,219.737 168.16,221.572 166.783,220.781 C165.407,219.99 164.352,221.825 165.729,222.616 C167.105,223.407 166.05,225.242 164.674,224.451 C163.298,223.66 162.243,225.495 163.619,226.286 C164.995,227.077 163.94,228.912 162.564,228.121 C161.188,227.329 160.133,229.164 161.509,229.956 C162.885,230.747 161.831,232.582 160.455,231.79 C159.078,230.999 158.024,232.834 159.4,233.625 C160.776,234.416 159.721,236.251 158.345,235.46 C156.969,234.669 155.914,236.504 157.29,237.295 C158.666,238.086 157.611,239.921 156.235,239.13 C154.859,238.339 153.804,240.174 155.18,240.965 C156.557,241.756 155.502,243.591 154.126,242.8' style='fill:none;stroke:#7F7F7F;stroke-width:2.0px;stroke-linecap:butt;stroke-linejoin:miter;stroke-opacity:1' />
</svg>
